src/components/icons/VehiclesIcon.svg

<svg width="36" height="36" viewBox="0 0 36 36" fill="none" xmlns="http://www.w3.org/2000/svg">
<path d="M10.617 25.961L9.24525 24.5893H5.89285V26.1964C5.89285 27.5257 6.97433 28.6071 8.30357 28.6071H9.91071C11.24 28.6071 12.3214 27.5257 12.3214 26.1964H11.1851C10.9717 26.1964 10.7676 26.1117 10.617 25.961Z" fill="#4E342E"/>
<path d="M25.383 25.961C25.2323 26.1117 25.0283 26.1964 24.8149 26.1964H23.6786C23.6786 27.5257 24.76 28.6071 26.0893 28.6071H27.6964C29.0257 28.6071 30.1071 27.5257 30.1071 26.1964V24.5893H26.7547L25.383 25.961Z" fill="#4E342E"/>
<path d="M29.3036 14.1429H6.69642C5.36509 14.1429 4.28571 15.2222 4.28571 16.5536V22.1786C4.28571 22.6224 4.64543 22.9821 5.08928 22.9821H9.57798C9.79101 22.9821 9.99525 23.0667 10.1459 23.2174L11.5178 24.5893H24.4821L25.8541 23.2174C26.0047 23.0667 26.209 22.9821 26.422 22.9821H30.9107C31.3546 22.9821 31.7143 22.6224 31.7143 22.1786V16.5536C31.7143 15.2222 30.6349 14.1429 29.3036 14.1429ZM9.10713 20.5714C8.22111 20.5714 7.49999 19.8503 7.49999 18.9643C7.49999 18.0783 8.22111 17.3571 9.10713 17.3571C9.99316 17.3571 10.7143 18.0783 10.7143 18.9643C10.7143 19.8503 9.99316 20.5714 9.10713 20.5714ZM21.2678 22.1786H14.7321C14.2881 22.1786 13.9286 21.8191 13.9286 21.375C13.9286 20.9309 14.2881 20.5714 14.7321 20.5714H21.2678C21.7119 20.5714 22.0714 20.9309 22.0714 21.375C22.0714 21.8191 21.7119 22.1786 21.2678 22.1786ZM22.875 18.9643H13.125C12.6809 18.9643 12.3214 18.6048 12.3214 18.1607C12.3214 17.7167 12.6809 17.3571 13.125 17.3571H22.875C23.319 17.3571 23.6786 17.7167 23.6786 18.1607C23.6786 18.6048 23.319 18.9643 22.875 18.9643ZM26.8928 20.5714C26.0068 20.5714 25.2857 19.8503 25.2857 18.9643C25.2857 18.0783 26.0068 17.3571 26.8928 17.3571C27.7789 17.3571 28.5 18.0783 28.5 18.9643C28.5 19.8503 27.7789 20.5714 26.8928 20.5714Z" fill="#5D4037"/>
<path d="M5.08928 22.9821C4.64543 22.9821 4.28571 22.6224 4.28571 22.1786C9.43316 21.9528 12.1069 20.6043 14.5643 19.0714H23.5714V17.3183H17.3571C19.9641 15.7824 23.1987 14.4132 29.3036 14.1429C30.6349 14.1429 31.7143 15.2222 31.7143 16.5536V22.1786C31.7143 22.6224 31.3546 22.9821 30.9107 22.9821H26.422C26.209 22.9821 26.0047 23.0667 25.8541 23.2174L24.4821 24.5893H11.5178L10.1459 23.2174C9.99525 23.0667 9.79101 22.9821 9.57798 22.9821H5.08928Z" fill="black" fill-opacity="0.1"/>
<path d="M25.201 8.15834C25.0643 7.88608 24.7866 7.71428 24.4821 7.71428H11.5179C11.2134 7.71428 10.9357 7.88608 10.799 8.15834L8.61035 12.5357H27.3896L25.201 8.15834Z" fill="#4E342E"/>
</svg>

<svg width="36" height="36" fill="none" xmlns="http://www.w3.org/2000/svg"><path d="M10.617 25.961l-1.372-1.372H5.893v1.607c0 1.33 1.081 2.411 2.41 2.411h1.608c1.329 0 2.41-1.081 2.41-2.41h-1.136a.803.803 0 01-.568-.236zM25.383 25.961a.803.803 0 01-.568.235h-1.136c0 1.33 1.081 2.411 2.41 2.411h1.607c1.33 0 2.411-1.081 2.411-2.41v-1.608h-3.352l-1.372 1.372z" fill="#4E342E"/><path d="M29.304 14.143H6.696a2.41 2.41 0 00-2.41 2.41v5.626c0 .443.36.803.803.803h4.489c.213 0 .417.085.568.235l1.372 1.372h12.964l1.372-1.372a.803.803 0 01.568-.235h4.489c.444 0 .803-.36.803-.803v-5.625a2.41 2.41 0 00-2.41-2.411zM9.107 20.57A1.61 1.61 0 017.5 18.964a1.61 1.61 0 011.607-1.607 1.61 1.61 0 011.607 1.607 1.61 1.61 0 01-1.607 1.607zm12.16 1.608h-6.535a.803.803 0 110-1.608h6.536a.803.803 0 110 1.608zm1.608-3.215h-9.75a.803.803 0 110-1.607h9.75a.803.803 0 110 1.607zm4.018 1.607a1.61 1.61 0 01-1.607-1.607 1.61 1.61 0 011.607-1.607 1.61 1.61 0 011.607 1.607 1.61 1.61 0 01-1.607 1.607z" fill="#5D4037"/><path d="M5.09 22.982a.803.803 0 01-.804-.803c5.147-.226 7.82-1.575 10.278-3.108h9.007v-1.753h-6.214c2.607-1.536 5.842-2.905 11.947-3.175a2.41 2.41 0 012.41 2.41v5.626c0 .443-.36.803-.803.803h-4.489a.803.803 0 00-.568.235l-1.372 1.372H11.518l-1.372-1.372a.803.803 0 00-.568-.235H5.089z" fill="#000" fill-opacity=".1"/><path d="M25.201 8.158a.804.804 0 00-.719-.444H11.518a.804.804 0 00-.719.444L8.61 12.536h18.78L25.2 8.158z" fill="#4E342E"/></svg>
